lib/brands/icons/stackoverflow.svg

<svg xmlns="http://www.w3.org/2000/svg" fill="none" aria-hidden="true" viewBox="0 0 48 48"><g id="stackoverflow-Icon"><g id="Group"><path id="Vector" fill="#BCBBBB" d="M34.4967 38.7991V29.1547H37.6976V42H8.80615V29.1547H12.0071V38.7991H34.4967Z"/><path id="Vector_2" fill="#F48023" d="M15.5406 28.2402L31.2542 31.5243L31.9193 28.3649L16.2057 25.0808L15.5406 28.2402ZM17.6191 20.7575L32.1687 27.5335L33.499 24.6236L18.9493 17.806L17.6191 20.7575ZM21.6514 13.6074L33.9978 23.8753L36.0348 21.4226L23.6884 11.1547L21.6514 13.6074ZM29.6329 6L27.0556 7.91224L36.6168 20.7991L39.1942 18.8868L29.6329 6ZM15.208 35.5566H31.2542V32.3557H15.208V35.5566Z"/></g></g></svg>

<svg xmlns="http://www.w3.org/2000/svg" fill="none" aria-hidden="true" viewBox="0 0 48 48"><path fill="#BCBBBB" d="M34.497 38.8v-9.645h3.2V42H8.806V29.155h3.201v9.644h22.49Z"/><path fill="#F48023" d="m15.54 28.24 15.714 3.284.665-3.16-15.713-3.283-.666 3.16Zm2.079-7.482 14.55 6.776 1.33-2.91-14.55-6.818-1.33 2.951Zm4.032-7.15 12.347 10.267 2.037-2.452-12.347-10.268-2.037 2.452ZM29.633 6l-2.578 1.912L36.617 20.8l2.577-1.912L29.633 6ZM15.208 35.557h16.046v-3.201H15.208v3.2Z"/></svg>
